!!!!SEGMENT: pl-kk--kk-i-3--006-001_anonim--officium-primum-de-annuntiatione-de-bmv-rorate-caeli.krn
!!!cenid: 15xx:578
!!!COM: Anonim
!!!COM-rismID: pe30004985
!!!CDT:
!!!CNT:
!!!OPR: Officium Primum de Annuntiatione de BMV
!!!OTL: Rorate caeli
!!!OMV: 001
!!!PDT:
!!!AGN:
!!!SMS-siglum: PL-Kk
!!!SMS-shelfmark: Kk.I.3
!!!SMS-shelfwork: 006-001 M
!!!SMS-variant:
!!!SMS-altvar:
!!!NIFC-rismSourceID: 1001145493
!!!NIFC-rismChildID: 1001145498
!!!NIFC-islandoraID: pl-kk:1170
!!!URL-pdf-islandora: https://repozytorium.nifc.pl/islandora/object/pl-kk%3A1170/datastream/PDF/view
!!!URL-scan: https://polish.musicsources.pl/pl/lokalizacje/galeria/rekopisy/5919 @EN{Scan on Polish Music Sources Website} @PL{Skany w portalu Dziedzictwo Muzyki Polskiej w otwartym dostępie}
!!!ONB-nifc: UWAGA: Discantus (s. 16v-17v, skan 0019-0020), Tenor (s. 16r, skan 0188), Bassus (s. 13r-14v, skan 0316-0317). Następna część: Kirie
!!!AIN: 1 bass 1 soprn 1 tenor
!!!key: d
**kern	**text	**text	**kern	**text	**text	**kern	**text	**text
*part3	*part3	*part3	*part2	*part2	*part2	*part1	*part1	*part1
*staff3	*staff3	*staff3	*staff2	*staff2	*staff2	*staff1	*staff1	*staff1
*I"Bassus	*	*	*I"Tenor	*	*	*I"Discantus	*	*
*I'B	*	*	*I'T	*	*	*I'S	*	*
*Ibass	*	*	*Itenor	*	*	*Isoprn	*	*
*ICvox	*	*	*ICvox	*	*	*ICvox	*	*
*clefF4	*	*	*clefF3	*	*	*clefC3	*	*
*k[b-]	*	*	*k[b-]	*	*	*k[b-]	*	*
*d:	*	*	*d:	*	*	*d:	*	*
*M2\1	*	*	*M2\1	*	*	*M2\1	*	*
*met(c)	*	*	*met(c)	*	*	*met(c)	*	*
*met(ø)	*	*	*	*	*	*met(ø)	*	*
=1-	=1-	=1-	=1-	=1-	=1-	=1-	=1-	=1-
*lig	*	*	*	*	*	*	*	*
1C	Ro-	.	1C	Ro-	.	1c	Ro-	.
1GG	.	.	1D	.	.	2.B-/	.	.
.	.	.	.	.	.	4c/	.	.
*Xlig	*	*	*	*	*	*	*	*
=2-	=2-	=2-	=2-	=2-	=2-	=2-	=2-	=2-
*lig	*	*	*	*	*	*	*	*
1GG	-ra-	.	1D	-ra-	.	2d/	.	.
.	.	.	.	.	.	2B-/	-ra-	.
*	*	*	*lig	*	*	*	*	*
1FF	.	.	1A	.	.	2.c/	.	.
.	.	.	.	.	.	4B-/	.	.
*Xlig	*	*	*	*	*	*	*	*
=3-	=3-	=3-	=3-	=3-	=3-	=3-	=3-	=3-
1FF	.	.	1F	.	.	4A/	.	.
.	.	.	.	.	.	4G/	.	.
.	.	.	.	.	.	1F/	-te	.
*lig	*	*	*	*	*	*	*	*
1F	-te	.	1c	.	.	.	.	.
.	.	.	.	.	.	1f\	.	.
*	*	*	*Xlig	*	*	*	*	*
=4-	=4-	=4-	=4-	=4-	=4-	=4-	=4-	=4-
1D	.	.	1A	-te	.	.	.	.
*	*	*	*	*	*	*2\right	*	*
.	.	.	.	.	.	2f\	ce-	.
*Xlig	*	*	*	*	*	*	*	*
*lig	*	*	*	*	*	*	*	*
*	*	*	*	*	*	*custos:e	*	*
1G	ce-	.	1A	cae-	.	1g	.	.
=5-	=5-	=5-	=5-	=5-	=5-	=5-	=5-	=5-
!	!	!	!	!	!	!LO:LB:g=original	!	!
1C	.	.	1B-	.	.	1e	-li	.
*Xlig	*	*	*	*	*	*	*	*
*	*	*	*lig	*	*	*	*	*
1F	.	.	1c	-li	.	1f	.	.
=6-	=6-	=6-	=6-	=6-	=6-	=6-	=6-	=6-
*lig	*	*	*	*	*	*	*	*
1D	-li	.	1A	.	.	2r	.	.
.	.	.	.	.	.	1f\	de-	.
*	*	*	*Xlig	*	*	*	*	*
*	*	*	*lig	*	*	*	*	*
1G	.	.	1B-	.	.	.	.	.
.	.	.	.	.	.	2e\	.	.
*Xlig	*	*	*	*	*	*	*	*
=7-	=7-	=7-	=7-	=7-	=7-	=7-	=7-	=7-
!LO:TX:t=P:problem=nadmiarowy choć skreślony? dźwięk w tenorze	!	!	!	!	!	!LO:TX:t=P:problem=nadmiarowy choć skreślony? dźwięk w tenorze	!	!
1ryy	.	.	1A	.	.	1ryy	.	.
*	*	*	*Xlig	*	*	*	*	*
*lig	*	*	*	*	*	*	*	*
1F	de-	.	1A	de-	.	1f	.	.
=8-	=8-	=8-	=8-	=8-	=8-	=8-	=8-	=8-
1C	.	.	1c	-ſu-	.	2e\	.	.
.	.	.	.	.	.	2.c/	-su-	.
*Xlig	*	*	*	*	*	*	*	*
*	*	*	*lig	*	*	*	*	*
1C	-su-	.	1c	.	.	.	.	.
.	.	.	.	.	.	4d/	.	.
.	.	.	.	.	.	4e\	.	.
.	.	.	.	.	.	4f\	.	.
=9-	=9-	=9-	=9-	=9-	=9-	=9-	=9-	=9-
*custos:GG	*	*	*	*	*	*	*	*
2r	.	.	1B-	.	.	2.g\	.	.
!LO:LB:g=original	!	!	!	!	!	!	!	!
2GG/	.	.	.	.	.	.	.	.
.	.	.	.	.	.	4f\	.	.
*	*	*	*Xlig	*	*	*	*	*
*lig	*	*	*lig	*	*	*	*	*
1AA	.	.	1c	.	.	1e	.	.
=10-	=10-	=10-	=10-	=10-	=10-	=10-	=10-	=10-
1D	.	.	1d	.	.	2d/	.	.
.	.	.	.	.	.	2f\	.	.
*Xlig	*	*	*Xlig	*	*	*	*	*
*lig	*	*	*lig	*	*	*	*	*
1AA	.	.	1c	.	.	1e	.	.
=11-	=11-	=11-	=11-	=11-	=11-	=11-	=11-	=11-
*	*	*	*custos:B	*	*	*	*	*
1D	.	.	1d	.	.	2d/	.	.
*	*	*	*	*	*	*custos:B	*	*
.	.	.	.	.	.	1c\	.	.
*Xlig	*	*	*Xlig	*	*	*	*	*
*lig	*	*	*lig	*	*	*	*	*
1GG	-per	.	1d	-per	.	.	.	.
!	!	!	!	!	!	!LO:LB:g=original	!	!
.	.	.	.	.	.	2B-/	.	.
=12-	=12-	=12-	=12-	=12-	=12-	=12-	=12-	=12-
1AA	.	.	1c	.	.	1c	-per	.
*Xlig	*	*	*Xlig	*	*	*	*	*
1GG	et	.	1G	et	.	2r	.	.
.	.	.	.	.	.	2d/	et	.
=13-	=13-	=13-	=13-	=13-	=13-	=13-	=13-	=13-
2r	.	.	1B-	nu-	.	1d	nu-	.
*2\right	*	*	*	*	*	*	*	*
2G\	nu-	.	.	.	.	.	.	.
*	*	*	*lig	*	*	*	*	*
1A	-bes	.	1c	.	.	2c/	.	.
.	.	.	.	.	.	2.A/	.	.
=14-	=14-	=14-	=14-	=14-	=14-	=14-	=14-	=14-
1F	.	.	1A	.	.	.	.	.
.	.	.	.	.	.	4B-/	.	.
.	.	.	.	.	.	1c\	.	.
*	*	*	*Xlig	*	*	*	*	*
1F,	.	.	1A	-bes	.	.	.	.
.	.	.	.	.	.	4B-/	.	.
.	.	.	.	.	.	4A/	.	.
=15-	=15-	=15-	=15-	=15-	=15-	=15-	=15-	=15-
1G	plu-	.	1B-	.	.	1G	-bes	.
*	*	*	*lig	*	*	*	*	*
1C	.	.	1c	plu-	.	2r	.	.
!	!	!	!	!	!	!LO:N:vis=2..	!	!
.	.	.	.	.	.	2g\	Plu-	.
=16-	=16-	=16-	=16-	=16-	=16-	=16-	=16-	=16-
2.D/	.	.	1A	.	.	2.f\	.	.
4E/	.	.	.	.	.	4e\	.	.
*	*	*	*Xlig	*	*	*	*	*
1F	-ant	.	1A,	-ant	.	2d/	.	.
.	.	.	.	.	.	2c/	-ant	.
=17-	=17-	=17-	=17-	=17-	=17-	=17-	=17-	=17-
*custos:D	*	*	*	*	*	*	*	*
*	*	*	*lig	*	*	*	*	*
1G	iu-	.	1G	iu-	.	2.d/	iu-	.
.	.	.	.	.	.	4e\	.	.
*	*	*	*	*	*	*custos:d	*	*
!LO:LB:g=original	!	!	!	!	!	!	!	!
2.D/	.	.	1F	.	.	2f\	.	.
!	!	!	!	!	!	!LO:LB:g=original	!	!
.	.	.	.	.	.	2d/	.	.
4E/	.	.	.	.	.	.	.	.
*	*	*	*Xlig	*	*	*	*	*
=18-	=18-	=18-	=18-	=18-	=18-	=18-	=18-	=18-
2F/	.	.	1A	.	.	2c/	.	.
4E/	.	.	.	.	.	2f\	.	.
4D/	.	.	.	.	.	.	.	.
2C/	.	.	1G	.	.	2e\	.	.
2.BB-/	.	.	.	.	.	2.d/	.	.
=19-	=19-	=19-	=19-	=19-	=19-	=19-	=19-	=19-
.	.	.	1F	.	.	.	.	.
4C/	.	.	.	.	.	4e\	.	.
2D/	.	.	.	.	.	1f\	.	.
*lig	*	*	*lig	*	*	*	*	*
1C	.	.	1G	.	.	.	.	.
.	.	.	.	.	.	2e\	.	.
=20-	=20-	=20-	=20-	=20-	=20-	=20-	=20-	=20-
1FF	.	.	1F	.	.	2f\	.	.
.	.	.	.	.	.	4e\	.	.
.	.	.	.	.	.	4d\	.	.
*Xlig	*	*	*Xlig	*	*	*	*	*
1FF	-stum	.	1F,	-ſtum	.	2c/	-stu(m)	.
.	.	.	.	.	.	2.A/	ap-	.
=21-	=21-	=21-	=21-	=21-	=21-	=21-	=21-	=21-
1FF	ap-	.	1F	a-	.	.	.	.
.	.	.	.	.	.	4B-/	.	.
.	.	.	.	.	.	4c/	.	.
.	.	.	.	.	.	4d/	.	.
2C/	-pe-	.	1G	-pe-	.	2e\	-pe-	.
2BB-/	.	.	.	.	.	2d/	-ri-	.
=22-	=22-	=22-	=22-	=22-	=22-	=22-	=22-	=22-
2.AA/	ri-	.	1A	-ri-	.	2.c/	-a-	.
*	*	*	*	*	*	*custos:e	*	*
4BB-/	a-	.	.	.	.	4d/	.	.
!	!	!	!	!	!	!LO:PB:g=original	!	!
2C/	.	.	1A	-a-	.	2e/	.	.
*custos:C	*	*	*	*	*	*	*	*
2D/	.	.	.	.	.	2f/	.	.
=23-	=23-	=23-	=23-	=23-	=23-	=23-	=23-	=23-
!LO:PB:g=original	!	!	!	!	!	!	!	!
1C	.	.	1c	.	.	2e/	.	.
.	.	.	.	.	.	1g\	.	.
*	*	*	*custos:F	*	*	*	*	*
1C	-tur	.	1G	-tur	.	.	.	.
.	.	.	.	.	.	4f/	.	.
.	.	.	.	.	.	4e/	.	.
=24-	=24-	=24-	=24-	=24-	=24-	=24-	=24-	=24-
!	!	!	!LO:LB:g=original	!	!	!	!	!
1D	ter-	.	1F	ter-	.	2d/	-tur	.
.	.	.	.	.	.	1f\	ter-	.
1C	.	.	1G	.	.	.	.	.
.	.	.	.	.	.	2e/	.	.
=25-	=25-	=25-	=25-	=25-	=25-	=25-	=25-	=25-
*	*	*	*lig	*	*	*	*	*
2FF/	.	.	1F	-ra	.	2d/	.	.
2.F\	.	.	.	.	.	2c/	-ra	.
.	.	.	1D	.	.	2.d/	.	.
4E/	.	.	.	.	.	.	.	.
4D/	.	.	.	.	.	.	.	.
4C/	.	.	.	.	.	4e/	.	.
*	*	*	*Xlig	*	*	*	*	*
=26-	=26-	=26-	=26-	=26-	=26-	=26-	=26-	=26-
1BB-	-ra	.	1D	.	.	2f/	.	.
.	.	.	.	.	.	2d/	.	.
2FF/	et	.	1F	et	.	2c/	et	.
2BB-/	.	.	.	.	.	2d/	.	.
=27-	=27-	=27-	=27-	=27-	=27-	=27-	=27-	=27-
*lig	*	*	*	*	*	*	*	*
1FF	ger-	.	1F	ger-	.	2c/	.	.
.	.	.	.	.	.	1f\	ger-	.
1C	.	.	1G	.	.	.	.	.
*	*	*	*	*	*	*custos:f	*	*
.	.	.	.	.	.	2e/	-mi-	.
*Xlig	*	*	*	*	*	*	*	*
=28-	=28-	=28-	=28-	=28-	=28-	=28-	=28-	=28-
!	!	!	!	!	!	!LO:LB:g=original	!	!
2FF/	-mi-	.	1F	-mi-	.	1f	-net	.
1F\	.	.	.	.	.	.	.	.
.	.	.	1G	.	.	1r	.	.
2E/	.	.	.	.	.	.	.	.
=29-	=29-	=29-	=29-	=29-	=29-	=29-	=29-	=29-
1F	-net	.	1F	-net	.	1c	Sal-	.
2F/	.	.	1F	.	.	2d/	.	.
1D\	.	.	.	.	.	1f\	.	.
=30-	=30-	=30-	=30-	=30-	=30-	=30-	=30-	=30-
.	.	.	1D	ſal-	.	.	.	.
4C/	sal	.	.	.	.	4e/	.	.
4BB-/	.	.	.	.	.	4d/	.	.
!LO:LB:g=original	!	!	!	!	!	!	!	!
2AA/	.	.	1F	.	.	2c/	.	.
2BB-/	.	.	.	.	.	2d/	.	.
=31-	=31-	=31-	=31-	=31-	=31-	=31-	=31-	=31-
2.AA/	.	.	1C	-va-	.	2.c/	.	.
4GG/	.	.	.	.	.	4B-/	.	.
*	*	*	*lig	*	*	*	*	*
1FF	.	.	1F	.	.	2A/	.	.
.	.	.	.	.	.	2.F/	.	.
=32-	=32-	=32-	=32-	=32-	=32-	=32-	=32-	=32-
2r	.	.	1D	.	.	.	.	.
.	.	.	.	.	.	4G/	.	.
1F\	Sal-	.	.	.	.	2A/	.	.
*	*	*	*Xlig	*	*	*	*	*
.	.	.	1D	-to-	.	2B-/	.	.
2F\	-va-	.	.	.	.	2A/	.	.
=33-	=33-	=33-	=33-	=33-	=33-	=33-	=33-	=33-
1C	-to-	.	1E	.	.	2G/	.	.
.	.	.	.	.	.	2g\	.	.
2.D/	.	.	[>1F	.	.	2.f\	.	.
*	*	*	*	*	*	*custos:d	*	*
4C/	.	.	.	.	.	4e/	.	.
=34-	=34-	=34-	=34-	=34-	=34-	=34-	=34-	=34-
*	*	*	*lig	*	*	*	*	*
!	!	!	!	!	!	!LO:LB:g=original	!	!
2BB-/	.	.	1F]	.	.	2d/	.	.
2AA/	.	.	.	.	.	2c/	-va-	.
2BB-/	.	.	1D	.	.	1d	-to-	.
2.GG/	.	.	.	.	.	.	.	.
*	*	*	*Xlig	*	*	*	*	*
=35-	=35-	=35-	=35-	=35-	=35-	=35-	=35-	=35-
.	.	.	0D	-rem	.	0d;>	-rem	.
4AA/	.	.	.	.	.	.	.	.
4BB-/	.	.	.	.	.	.	.	.
4C/	.	.	.	.	.	.	.	.
!LO:N:vis=0	!	!	!	!	!	!	!	!
1D;>	-rem	.	.	.	.	.	.	.
=36-	=36-	=36-	=36-	=36-	=36-	=36-	=36-	=36-
*	*	*	*custos:G	*	*	*	*	*
!LO:LB:g=original	!	!	!	!	!	!	!	!
1F	Ce-	Be-	1F	CE-	Be-	1f	Ce-	Be-
!	!	!	!LO:LB:g=original	!	!	!	!	!
2.C/	-li	-ne-	1G	-li	-ne-	2.e/	-li	-ne-
4BB-/	.	.	.	.	.	4d/	.	.
=37-	=37-	=37-	=37-	=37-	=37-	=37-	=37-	=37-
2AA/	.	.	1A,	.	.	2c/	.	-di-
1D\	e-	-di-	.	.	.	2.A/	e-	-xi-
.	.	.	1A	e-	-di-	.	.	.
.	.	.	.	.	.	4B-/	.	.
4C/	.	.	.	.	.	2.c/	-nar-	.
4BB-/	.	.	.	.	.	.	.	.
=38-	=38-	=38-	=38-	=38-	=38-	=38-	=38-	=38-
2AA/	.	.	1A	-nar-	-xiſ-	.	.	.
.	.	.	.	.	.	4B-/	.	.
2.FF/	-nar-	-xi-	.	.	.	4A/	.	.
*	*	*	*	*	*	*custos:F	*	*
.	.	.	.	.	.	4G/	.	-ſti
!	!	!	!	!	!	!LO:LB:g=original	!	!
.	.	.	1A	-ra(n)t	-ti	2.F/	-rant	do-
4GG/	.	.	.	.	.	.	.	.
4AA/	-ra(n)t	.	.	.	.	.	.	.
4BB-/	.	.	.	.	.	4G/	.	.
=39-	=39-	=39-	=39-	=39-	=39-	=39-	=39-	=39-
2C/	.	.	1A	glo-	Do-	4A/	.	.
.	.	.	.	.	.	4B-/	.	.
2FF/	glo-	-ſti	.	.	.	4c/	.	.
.	.	.	.	.	.	4d/	.	.
1C	.	Do-	1c	.	.	4e\	.	.
.	.	.	.	.	.	4f\	.	.
.	.	.	.	.	.	4g\	.	.
.	.	.	.	.	.	4e\	.	.
=40-	=40-	=40-	=40-	=40-	=40-	=40-	=40-	=40-
2D/	.	.	1A	-ri-	-mi-	2f\	glo-	-mi-
2AA/	-ri-	.	.	.	.	2e\	-ri-	.
2D/	-am	.	1A,	-a(m)	-ne	2f\	-am	-ne
4C/	de-	-mi-	.	.	.	4e\	.	.
4BB-/	.	.	.	.	.	4d\	.	.
=41-	=41-	=41-	=41-	=41-	=41-	=41-	=41-	=41-
1AA	.	-ne	1A	de-	ter-	1c	.	ter-
2BB-/	.	ter-	1G	.	-ra(m)	2d/	.	.
!LO:LB:g=original	!	!	!	!	!	!	!	!
2C/	.	.	.	.	.	1e\	.	-ram
=42-	=42-	=42-	=42-	=42-	=42-	=42-	=42-	=42-
1BB-	-i	.	1G	-i	tu-	.	.	.
.	.	.	.	.	.	2d/	.	.
2AA/	.	.	1A,	.	-a(m)	2c/	.	.
*	*	*	*	*	*	*custos:e	*	*
2FF/	.	-ram	.	.	.	1f\	.	tu-
=43-	=43-	=43-	=43-	=43-	=43-	=43-	=43-	=43-
*	*	*	*lig	*	*	*	*	*
1C	et	tu-	1G	et	a-	.	.	.
!	!	!	!	!	!	!LO:LB:g=original	!	!
.	.	.	.	.	.	2e\	de-	.
2FF/	.	-am	1F	.	.	1f	-i	-am
1F\	.	a-	.	.	.	.	.	.
*	*	*	*Xlig	*	*	*	*	*
=44-	=44-	=44-	=44-	=44-	=44-	=44-	=44-	=44-
.	.	.	1G	o-	-ver-	1r	.	.
2E/	o-	-ver-	.	.	.	.	.	.
1F	-pe-	-tiſ-	1A,	.	.	2r	.	.
.	.	.	.	.	.	2.F/	et	a-
=45-	=45-	=45-	=45-	=45-	=45-	=45-	=45-	=45-
1D	-ra	-ti	[>1A	-pe-	-ti-	.	.	.
.	.	.	.	.	.	4G/	.	.
.	.	.	.	.	.	2A/	.	.
2D/	.	a-	1A,]	-ra	.	2F/	o-	-ver-
1F\	ma-	-ver-	.	.	.	2.A/	-pe-	-ti-
=46-	=46-	=46-	=46-	=46-	=46-	=46-	=46-	=46-
.	.	.	[>1A	ma-	-ſti	.	.	.
.	.	.	.	.	.	4B-/	.	.
2F\	-ri-	-tiſ-	.	.	.	2c/	.	-ſti
1F	-us	-ti	1A]	-ri-	.	2A/	-ra	.
.	.	.	.	.	.	2.c/	ma-	a-
=47-	=47-	=47-	=47-	=47-	=47-	=47-	=47-	=47-
1r	.	.	[>1A,	-u(s)	ca-	.	.	.
.	.	.	.	.	.	4d/	ri-	.
.	.	.	.	.	.	2e,/	-u(s)	-ver-
1F	e-	ca-	1A_>	e-	-pti-	2c/	e-	.
.	.	.	.	.	.	2.d/	.	-ti-
=48-	=48-	=48-	=48-	=48-	=48-	=48-	=48-	=48-
*	*	*	*custos:A	*	*	*	*	*
2.D/	-ius	pti-	1A]	-ius	.	.	.	.
.	.	.	.	.	.	4e\	.	.
.	.	.	.	.	.	2f\	-ius	-ſti
4E/	an-	.	.	.	.	.	.	.
*	*	*	*	*	*	*custos:f	*	*
!	!	!	!LO:LB:g=original	!	!	!	!	!
2F\	-(n)u(n)-	.	[>1A	an-	-vi-	2d/	.	.
!	!	!	!	!	!	!LO:PB:g=original	!	!
2D/	.	-vi-	.	.	.	2f\	an-	ca-
=49-	=49-	=49-	=49-	=49-	=49-	=49-	=49-	=49-
2C/	.	-ta-	1A]	.	.	2e\	-nu(n)-	.
!LO:LB:g=original	!	!	!	!	!	!	!	!
1F\	.	-tem	.	.	.	2.c/	.	pti-
.	.	.	[>1A	-nun-	-ta-	.	.	.
.	.	.	.	.	.	4B-/	.	.
2F/	-cti-	Cap-	.	.	.	2.A/	-cti-	.
=50-	=50-	=50-	=50-	=50-	=50-	=50-	=50-	=50-
1F	-at	-ti-	1A]	.	.	.	.	.
.	.	.	.	.	.	4G/	-at	-vi-
.	.	.	.	.	.	1F/	.	-ta-
1D	.	-vi-	1B-	-ci-	.	.	.	.
.	.	.	.	.	.	1f\	.	.
=51-	=51-	=51-	=51-	=51-	=51-	=51-	=51-	=51-
*	*	*	*lig	*	*	*	*	*
1C	.	-ta-	1c	-ant	.	.	.	.
.	.	.	.	.	.	2e\	.	.
*lig	*	*	*	*	*	*	*	*
1FF	.	-tem	1A	.	.	2f\	.	-tem
.	.	.	.	.	.	1c\	fir-	.
*	*	*	*Xlig	*	*	*	*	*
=52-	=52-	=52-	=52-	=52-	=52-	=52-	=52-	=52-
1C	.	.	1G	fir-	-tem	.	.	.
.	.	.	.	.	.	2c/	.	Ja-
*Xlig	*	*	*	*	*	*	*	*
2r	.	.	1F	-ma-	.	2d/	.	-cob
1FF/	fir-	.	.	.	.	2.f\	-ma-	Ja-
=53-	=53-	=53-	=53-	=53-	=53-	=53-	=53-	=53-
*	*	*	*lig	*	*	*	*	*
.	.	.	1F	-men-	Ja-	.	.	.
.	.	.	.	.	.	4e/	.	.
2GG/	-ma-	Ja-	.	.	.	1d\	.	.
1AA	-me(n)-	.	1E	.	.	.	.	.
.	.	.	.	.	.	2c/	-men-	.
*	*	*	*Xlig	*	*	*	*	*
=54-	=54-	=54-	=54-	=54-	=54-	=54-	=54-	=54-
*custos:F	*	*	*	*	*	*custos:f	*	*
0D;>	-tum	-cob.	1D	-tu-	-co-	0d;>	-tu(m)	-cob.
!	!	!	!LO:N:vis=0	!	!	!	!	!
.	.	.	1D	-m	-b	.	.	.
!LO:PB:g=original	!	!	!LO:PB:g=original	!	!	!LO:LB:g=original	!	!
=-	=-	=-	=-	=-	=-	=-	=-	=-
*-	*-	*-	*-	*-	*-	*-	*-	*-
!!!system-decoration: [(s1,s2,s3)]
!!!RDF**kern: < = below
!!!RDF**kern: > = above
!!!RDF**kern: l = terminal long
!!!ENC: Filip Voros
!!!END: 2021-12-27
!!!ENC: Marta Chmielewska
!!!END: 2021-12-30
!!!YEC: Copyright 2022 Narodowy Instytut Fryderyka Chopina (https://polishscores.org)
!!!YEM: License CC-BY-4.0 (https://creativecommons.org/licenses/by/4.0)
